X: 11257
T: Dusty Windowsills
R: jig
M: 6/8
K: Adorian
E|:A2B cBA|eAB cBA|G3 EGG|DGG EFG|
A2B cBA|e2d efg|age dBG|ABA A3:|
|:a3 age|dBd g3|gba gfe|dBA G3|
EGG DGG|EFG ABc|Bed BAG|B2A A3:|
|:A3 gAf|A3 ged|G3 eGd|G3 edB|
A3 gAf|A3 efg|age dBG|ABA A3:|

